svg/color/cap.svg

<?xml version="1.0" encoding="UTF-8" ?>
<!DOCTYPE svg PUBLIC "-//W3C//DTD SVG 1.1//EN" "http://www.w3.org/Graphics/SVG/1.1/DTD/svg11.dtd">
<svg width="250pt" height="250pt" viewBox="0 0 250 250" version="1.1" xmlns="http://www.w3.org/2000/svg">
<g id="#080c10ff">
<path fill="#080c10" opacity="1.00" d=" M 0.00 0.00 L 250.00 0.00 L 250.00 250.00 L 0.00 250.00 L 0.00 0.00 M 78.09 109.37 C 72.89 109.42 67.69 109.39 62.50 109.39 C 62.50 114.61 62.51 119.82 62.50 125.03 C 57.26 124.95 52.03 124.88 46.79 125.09 C 46.79 130.15 46.79 135.21 46.80 140.28 C 46.79 145.64 46.78 150.99 46.80 156.36 C 59.94 156.42 73.09 156.39 86.23 156.37 C 99.10 156.39 111.98 156.38 124.86 156.38 C 138.05 156.39 151.24 156.40 164.43 156.37 C 177.36 156.39 190.29 156.41 203.21 156.36 C 203.20 151.12 203.20 145.87 203.21 140.63 C 190.39 140.48 177.57 140.79 164.76 140.47 C 164.58 140.45 164.23 140.42 164.05 140.40 C 164.33 135.30 164.13 130.19 164.19 125.08 C 156.34 124.82 148.48 125.07 140.62 125.01 C 140.59 119.80 140.61 114.59 140.61 109.39 C 132.80 109.39 125.00 109.41 117.20 109.38 C 117.26 104.13 117.23 98.87 117.23 93.61 C 104.22 93.61 91.22 93.62 78.22 93.61 C 78.12 98.86 78.16 104.12 78.09 109.37 Z" />
</g>
<g id="#12dd3bff">
<path fill="#12dd3b" opacity="1.00" d=" M 78.09 109.37 C 78.16 104.12 78.12 98.86 78.22 93.61 C 78.57 98.71 78.56 103.82 78.89 108.92 C 91.30 109.22 103.73 108.97 116.14 109.52 C 111.39 109.68 106.64 109.58 101.90 109.81 C 101.52 114.83 101.52 119.86 101.91 124.88 C 109.58 125.35 117.26 124.63 124.93 125.14 C 125.08 130.12 124.91 135.11 125.12 140.09 C 138.09 140.57 151.09 139.90 164.05 140.40 C 164.23 140.42 164.58 140.45 164.76 140.47 C 164.58 145.77 164.67 151.07 164.43 156.37 C 151.24 156.40 138.05 156.39 124.86 156.38 C 125.08 151.06 125.24 145.72 124.74 140.41 C 111.99 139.83 99.16 141.13 86.46 139.80 C 86.40 134.87 86.71 129.93 86.23 125.02 C 78.32 124.81 70.41 125.18 62.50 125.03 C 62.51 119.82 62.50 114.61 62.50 109.39 C 67.69 109.39 72.89 109.42 78.09 109.37 Z" />
</g>
<g id="#1bff49ff">
<path fill="#1bff49" opacity="1.00" d=" M 78.22 93.61 C 91.22 93.62 104.22 93.61 117.23 93.61 C 117.23 98.87 117.26 104.13 117.20 109.38 C 125.00 109.41 132.80 109.39 140.61 109.39 C 140.61 114.59 140.59 119.80 140.62 125.01 C 148.48 125.07 156.34 124.82 164.19 125.08 C 164.13 130.19 164.33 135.30 164.05 140.40 C 151.09 139.90 138.09 140.57 125.12 140.09 C 124.91 135.11 125.08 130.12 124.93 125.14 C 117.26 124.63 109.58 125.35 101.91 124.88 C 101.52 119.86 101.52 114.83 101.90 109.81 C 106.64 109.58 111.39 109.68 116.14 109.52 C 103.73 108.97 91.30 109.22 78.89 108.92 C 78.56 103.82 78.57 98.71 78.22 93.61 Z" />
<path fill="#1bff49" opacity="1.00" d=" M 164.76 140.47 C 177.57 140.79 190.39 140.48 203.21 140.63 C 203.20 145.87 203.20 151.12 203.21 156.36 C 190.29 156.41 177.36 156.39 164.43 156.37 C 164.67 151.07 164.58 145.77 164.76 140.47 Z" />
</g>
<g id="#09bb2dff">
<path fill="#09bb2d" opacity="1.00" d=" M 46.79 125.09 C 52.03 124.88 57.26 124.95 62.50 125.03 C 70.41 125.18 78.32 124.81 86.23 125.02 C 86.71 129.93 86.40 134.87 86.46 139.80 C 99.16 141.13 111.99 139.83 124.74 140.41 C 125.24 145.72 125.08 151.06 124.86 156.38 C 111.98 156.38 99.10 156.39 86.23 156.37 C 86.47 151.16 86.51 145.94 86.36 140.73 C 73.21 139.81 59.98 140.75 46.80 140.28 C 46.79 135.21 46.79 130.15 46.79 125.09 Z" />
</g>
<g id="#00991fff">
<path fill="#00991f" opacity="1.00" d=" M 46.80 140.28 C 59.98 140.75 73.21 139.81 86.36 140.73 C 86.51 145.94 86.47 151.16 86.23 156.37 C 73.09 156.39 59.94 156.42 46.80 156.36 C 46.78 150.99 46.79 145.64 46.80 140.28 Z" />
</g>
</svg>

<?xml version="1.0" encoding="utf-8"?>
<!-- Generator: Adobe Illustrator 26.0.3, SVG Export Plug-In . SVG Version: 6.00 Build 0)  -->
<svg version="1.1" id="Layer_1" xmlns="http://www.w3.org/2000/svg" xmlns:xlink="http://www.w3.org/1999/xlink" x="0px" y="0px"
	 viewBox="0 0 250 250" style="enable-background:new 0 0 250 250;" xml:space="preserve">
<style type="text/css">
	.st0{fill:#080C10;}
	.st1{fill:#12DD3B;}
	.st2{fill:#1BFF49;}
	.st3{fill:#09BB2D;}
	.st4{fill:#00991F;}
</style>
<circle class="st0" cx="125" cy="125" r="125"/>
<g id="_x23_12dd3bff">
	<path class="st1" d="M78.1,109.4c0.1-5.2,0-10.5,0.1-15.8c0.3,5.1,0.3,10.2,0.7,15.3c12.4,0.3,24.8,0.1,37.2,0.6
		c-4.8,0.2-9.5,0.1-14.2,0.3c-0.4,5-0.4,10.1,0,15.1c7.7,0.5,15.3-0.2,23,0.3c0.2,5,0,10,0.2,14.9c13,0.5,26-0.2,38.9,0.3
		c0.2,0,0.5,0.1,0.7,0.1c-0.2,5.3-0.1,10.6-0.3,15.9c-13.2,0-26.4,0-39.6,0c0.2-5.3,0.4-10.7-0.1-16c-12.8-0.6-25.6,0.7-38.3-0.6
		c-0.1-4.9,0.2-9.9-0.2-14.8c-7.9-0.2-15.8,0.2-23.7,0c0-5.2,0-10.4,0-15.6C67.7,109.4,72.9,109.4,78.1,109.4z"/>
</g>
<g id="_x23_1bff49ff">
	<path class="st2" d="M78.2,93.6c13,0,26,0,39,0c0,5.3,0,10.5,0,15.8c7.8,0,15.6,0,23.4,0c0,5.2,0,10.4,0,15.6
		c7.9,0.1,15.7-0.2,23.6,0.1c-0.1,5.1,0.1,10.2-0.1,15.3c-13-0.5-26,0.2-38.9-0.3c-0.2-5,0-10-0.2-14.9c-7.7-0.5-15.3,0.2-23-0.3
		c-0.4-5-0.4-10,0-15.1c4.7-0.2,9.5-0.1,14.2-0.3c-12.4-0.5-24.8-0.3-37.2-0.6C78.6,103.8,78.6,98.7,78.2,93.6z"/>
	<path class="st2" d="M164.8,140.5c12.8,0.3,25.6,0,38.5,0.2c0,5.2,0,10.5,0,15.7c-12.9,0.1-25.9,0-38.8,0
		C164.7,151.1,164.6,145.8,164.8,140.5z"/>
</g>
<g id="_x23_09bb2dff">
	<path class="st3" d="M46.8,125.1c5.2-0.2,10.5-0.1,15.7-0.1c7.9,0.2,15.8-0.2,23.7,0c0.5,4.9,0.2,9.8,0.2,14.8
		c12.7,1.3,25.5,0,38.3,0.6c0.5,5.3,0.3,10.6,0.1,16c-12.9,0-25.8,0-38.6,0c0.2-5.2,0.3-10.4,0.1-15.6c-13.2-0.9-26.4,0-39.6-0.4
		C46.8,135.2,46.8,130.1,46.8,125.1z"/>
</g>
<g id="_x23_00991fff">
	<path class="st4" d="M46.8,140.3c13.2,0.5,26.4-0.5,39.6,0.4c0.2,5.2,0.1,10.4-0.1,15.6c-13.1,0-26.3,0.1-39.4,0
		C46.8,151,46.8,145.6,46.8,140.3z"/>
</g>
</svg>
